X: 1
T: Eugene Stratton
C: James Scott Skinner
S: James Scott Skinner, the back of a postcard
M: 4/4
L: 1/8
R: hornpipe
K: Bb Major
|: F2 |\ 
B/B/B F>E D>FB>d | =e>fg>f ^cdAB | c/c/c G>F =E>Gc>B | A>cf>=e g>f_e>c |
B/B/B F>E D>FB>d | =e>fg>f _e>dc>B | g>eB>G E>ba>g | f>de>c B2 :|
|: a2 |\ 
b>BA>B g>BA>B | =e>fg>a b>fd>B | E>GB>e D>FB>d | c>^cd>=e f>^fg>a |
b>BA>B g>BA>B | =e>fg>a b>fd>B | g>eB>G E>ba>g | f>de>c B2 :|
